neru-light-classic/32x32/apps/documentation_section.svg

<?xml version="1.0" encoding="UTF-8" standalone="no"?>
<svg
   xmlns:dc="http://purl.org/dc/elements/1.1/"
   xmlns:cc="http://creativecommons.org/ns#"
   xmlns:rdf="http://www.w3.org/1999/02/22-rdf-syntax-ns#"
   xmlns:svg="http://www.w3.org/2000/svg"
   xmlns="http://www.w3.org/2000/svg"
   xmlns:sodipodi="http://sodipodi.sourceforge.net/DTD/sodipodi-0.dtd"
   xmlns:inkscape="http://www.inkscape.org/namespaces/inkscape"
   height="32"
   width="32"
   version="1"
   id="svg14"
   sodipodi:docname="documentation_section.svg"
   inkscape:version="0.92.1 r">
  <metadata
     id="metadata20">
    <rdf:RDF>
      <cc:Work
         rdf:about="">
        <dc:format>image/svg+xml</dc:format>
        <dc:type
           rdf:resource="http://purl.org/dc/dcmitype/StillImage" />
        <dc:title />
      </cc:Work>
    </rdf:RDF>
  </metadata>
  <defs
     id="defs18" />
  <sodipodi:namedview
     pagecolor="#ffffff"
     bordercolor="#666666"
     borderopacity="1"
     objecttolerance="10"
     gridtolerance="10"
     guidetolerance="10"
     inkscape:pageopacity="0"
     inkscape:pageshadow="2"
     inkscape:window-width="1680"
     inkscape:window-height="955"
     id="namedview16"
     showgrid="false"
     inkscape:zoom="5.2149125"
     inkscape:cx="-20.117424"
     inkscape:cy="30.356168"
     inkscape:window-x="0"
     inkscape:window-y="0"
     inkscape:window-maximized="1"
     inkscape:current-layer="svg14" />
  <rect
     style="opacity:1;fill:#61b0dd;fill-opacity:1;fill-rule:evenodd;stroke:none;stroke-width:1.03534329;stroke-linecap:round;stroke-linejoin:bevel;stroke-miterlimit:4;stroke-dasharray:none;stroke-dashoffset:0;stroke-opacity:1"
     id="rect4497-2"
     width="28.203388"
     height="28.203388"
     x="1.8983059"
     y="1.8983059"
     ry="5.575182" />
  <path
     style="opacity:1;fill:#e89800;fill-opacity:1;fill-rule:evenodd;stroke:none;stroke-width:1.03534329;stroke-linecap:round;stroke-linejoin:bevel;stroke-miterlimit:4;stroke-dasharray:none;stroke-dashoffset:0;stroke-opacity:1"
     d="M 20.693359 30.101562 L 24.527344 30.101562 C 27.615995 30.101563 30.101562 27.615995 30.101562 24.527344 L 30.101562 7.4726562 C 30.101563 4.3840054 27.615995 1.8984375 24.527344 1.8984375 L 20.693359 1.8984375 L 20.693359 30.101562 z "
     id="path4716" />
  <path
     style="opacity:1;fill:#bd1c1c;fill-opacity:1;fill-rule:evenodd;stroke:none;stroke-width:1.03534329;stroke-linecap:round;stroke-linejoin:bevel;stroke-miterlimit:4;stroke-dasharray:none;stroke-dashoffset:0;stroke-opacity:1"
     d="M 11.306641 1.8984375 L 7.4726562 1.8984375 C 4.3840054 1.8984375 1.8984375 4.3840054 1.8984375 7.4726562 L 1.8984375 24.527344 C 1.8984375 27.615995 4.3840054 30.101562 7.4726562 30.101562 L 11.306641 30.101562 L 11.306641 1.8984375 z "
     id="path4714" />
  <g
     id="g4842"
     transform="translate(-0.07084659,27.111876)">
    <g
       id="g4740-9"
       transform="translate(50.385014,-27.938967)">
      <rect
         style="opacity:1;fill:#e5e5e5;fill-opacity:1;fill-rule:evenodd;stroke:none;stroke-width:7.33984232;stroke-linecap:round;stroke-linejoin:bevel;stroke-miterlimit:4;stroke-dasharray:none;stroke-dashoffset:0;stroke-opacity:1"
         id="rect4496-2-3-3"
         width="5.621819"
         height="14.054549"
         x="-46.558014"
         y="5.7152143"
         ry="0.87841463" />
      <circle
         style="opacity:1;fill:#e5e5e5;fill-opacity:1;fill-rule:evenodd;stroke:none;stroke-width:7.33984232;stroke-linecap:round;stroke-linejoin:bevel;stroke-miterlimit:4;stroke-dasharray:none;stroke-dashoffset:0;stroke-opacity:1"
         id="path4498-9-6-1"
         cx="-43.747101"
         cy="25.523342"
         r="2.4156251" />
      <circle
         style="opacity:1;fill:#585858;fill-opacity:1;fill-rule:evenodd;stroke:none;stroke-width:7.33984232;stroke-linecap:round;stroke-linejoin:bevel;stroke-miterlimit:4;stroke-dasharray:none;stroke-dashoffset:0;stroke-opacity:1"
         id="path4498-3-1-0-9"
         cx="-43.747101"
         cy="25.523342"
         r="1.6357138" />
      <rect
         style="opacity:1;fill:#585858;fill-opacity:1;fill-rule:evenodd;stroke:none;stroke-width:7.33984232;stroke-linecap:round;stroke-linejoin:bevel;stroke-miterlimit:4;stroke-dasharray:none;stroke-dashoffset:0;stroke-opacity:1"
         id="rect4515-2-6-4"
         width="3.478323"
         height="2.2981777"
         x="-45.486263"
         y="6.8061333"
         ry="0.61489213" />
      <rect
         style="opacity:1;fill:#585858;fill-opacity:1;fill-rule:evenodd;stroke:none;stroke-width:7.33984232;stroke-linecap:round;stroke-linejoin:bevel;stroke-miterlimit:4;stroke-dasharray:none;stroke-dashoffset:0;stroke-opacity:1"
         id="rect4515-6-70-2-7"
         width="3.478323"
         height="0.90063721"
         x="-45.486263"
         y="14.937596"
         ry="0.24097122" />
      <rect
         style="opacity:1;fill:#585858;fill-opacity:1;fill-rule:evenodd;stroke:none;stroke-width:7.33984232;stroke-linecap:round;stroke-linejoin:bevel;stroke-miterlimit:4;stroke-dasharray:none;stroke-dashoffset:0;stroke-opacity:1"
         id="rect4515-6-7-9-6-8"
         width="3.478323"
         height="0.90063721"
         x="-45.486263"
         y="16.38172"
         ry="0.24097122" />
      <rect
         style="opacity:1;fill:#585858;fill-opacity:1;fill-rule:evenodd;stroke:none;stroke-width:7.33984232;stroke-linecap:round;stroke-linejoin:bevel;stroke-miterlimit:4;stroke-dasharray:none;stroke-dashoffset:0;stroke-opacity:1"
         id="rect4515-6-7-5-3-1-4"
         width="3.478323"
         height="0.90063721"
         x="-45.486263"
         y="17.779263"
         ry="0.24097122" />
    </g>
    <g
       id="g4740-5"
       transform="translate(59.817951,-27.938967)">
      <rect
         style="opacity:1;fill:#e5e5e5;fill-opacity:1;fill-rule:evenodd;stroke:none;stroke-width:7.33984232;stroke-linecap:round;stroke-linejoin:bevel;stroke-miterlimit:4;stroke-dasharray:none;stroke-dashoffset:0;stroke-opacity:1"
         id="rect4496-2-3-0"
         width="5.621819"
         height="14.054549"
         x="-46.558014"
         y="5.7152143"
         ry="0.87841463" />
      <circle
         style="opacity:1;fill:#e5e5e5;fill-opacity:1;fill-rule:evenodd;stroke:none;stroke-width:7.33984232;stroke-linecap:round;stroke-linejoin:bevel;stroke-miterlimit:4;stroke-dasharray:none;stroke-dashoffset:0;stroke-opacity:1"
         id="path4498-9-6-3"
         cx="-43.747101"
         cy="25.523342"
         r="2.4156251" />
      <circle
         style="opacity:1;fill:#585858;fill-opacity:1;fill-rule:evenodd;stroke:none;stroke-width:7.33984232;stroke-linecap:round;stroke-linejoin:bevel;stroke-miterlimit:4;stroke-dasharray:none;stroke-dashoffset:0;stroke-opacity:1"
         id="path4498-3-1-0-6"
         cx="-43.747101"
         cy="25.523342"
         r="1.6357138" />
      <rect
         style="opacity:1;fill:#585858;fill-opacity:1;fill-rule:evenodd;stroke:none;stroke-width:7.33984232;stroke-linecap:round;stroke-linejoin:bevel;stroke-miterlimit:4;stroke-dasharray:none;stroke-dashoffset:0;stroke-opacity:1"
         id="rect4515-2-6-1"
         width="3.478323"
         height="2.2981777"
         x="-45.486263"
         y="6.8061333"
         ry="0.61489213" />
      <rect
         style="opacity:1;fill:#585858;fill-opacity:1;fill-rule:evenodd;stroke:none;stroke-width:7.33984232;stroke-linecap:round;stroke-linejoin:bevel;stroke-miterlimit:4;stroke-dasharray:none;stroke-dashoffset:0;stroke-opacity:1"
         id="rect4515-6-70-2-0"
         width="3.478323"
         height="0.90063721"
         x="-45.486263"
         y="14.937596"
         ry="0.24097122" />
      <rect
         style="opacity:1;fill:#585858;fill-opacity:1;fill-rule:evenodd;stroke:none;stroke-width:7.33984232;stroke-linecap:round;stroke-linejoin:bevel;stroke-miterlimit:4;stroke-dasharray:none;stroke-dashoffset:0;stroke-opacity:1"
         id="rect4515-6-7-9-6-6"
         width="3.478323"
         height="0.90063721"
         x="-45.486263"
         y="16.38172"
         ry="0.24097122" />
      <rect
         style="opacity:1;fill:#585858;fill-opacity:1;fill-rule:evenodd;stroke:none;stroke-width:7.33984232;stroke-linecap:round;stroke-linejoin:bevel;stroke-miterlimit:4;stroke-dasharray:none;stroke-dashoffset:0;stroke-opacity:1"
         id="rect4515-6-7-5-3-1-3"
         width="3.478323"
         height="0.90063721"
         x="-45.486263"
         y="17.779263"
         ry="0.24097122" />
    </g>
    <g
       id="g4740-2"
       transform="translate(69.250888,-27.938967)">
      <rect
         style="opacity:1;fill:#e5e5e5;fill-opacity:1;fill-rule:evenodd;stroke:none;stroke-width:7.33984232;stroke-linecap:round;stroke-linejoin:bevel;stroke-miterlimit:4;stroke-dasharray:none;stroke-dashoffset:0;stroke-opacity:1"
         id="rect4496-2-3-06"
         width="5.621819"
         height="14.054549"
         x="-46.558014"
         y="5.7152143"
         ry="0.87841463" />
      <circle
         style="opacity:1;fill:#e5e5e5;fill-opacity:1;fill-rule:evenodd;stroke:none;stroke-width:7.33984232;stroke-linecap:round;stroke-linejoin:bevel;stroke-miterlimit:4;stroke-dasharray:none;stroke-dashoffset:0;stroke-opacity:1"
         id="path4498-9-6-15"
         cx="-43.747101"
         cy="25.523342"
         r="2.4156251" />
      <circle
         style="opacity:1;fill:#585858;fill-opacity:1;fill-rule:evenodd;stroke:none;stroke-width:7.33984232;stroke-linecap:round;stroke-linejoin:bevel;stroke-miterlimit:4;stroke-dasharray:none;stroke-dashoffset:0;stroke-opacity:1"
         id="path4498-3-1-0-5"
         cx="-43.747101"
         cy="25.523342"
         r="1.6357138" />
      <rect
         style="opacity:1;fill:#585858;fill-opacity:1;fill-rule:evenodd;stroke:none;stroke-width:7.33984232;stroke-linecap:round;stroke-linejoin:bevel;stroke-miterlimit:4;stroke-dasharray:none;stroke-dashoffset:0;stroke-opacity:1"
         id="rect4515-2-6-47"
         width="3.478323"
         height="2.2981777"
         x="-45.486263"
         y="6.8061333"
         ry="0.61489213" />
      <rect
         style="opacity:1;fill:#585858;fill-opacity:1;fill-rule:evenodd;stroke:none;stroke-width:7.33984232;stroke-linecap:round;stroke-linejoin:bevel;stroke-miterlimit:4;stroke-dasharray:none;stroke-dashoffset:0;stroke-opacity:1"
         id="rect4515-6-70-2-6"
         width="3.478323"
         height="0.90063721"
         x="-45.486263"
         y="14.937596"
         ry="0.24097122" />
      <rect
         style="opacity:1;fill:#585858;fill-opacity:1;fill-rule:evenodd;stroke:none;stroke-width:7.33984232;stroke-linecap:round;stroke-linejoin:bevel;stroke-miterlimit:4;stroke-dasharray:none;stroke-dashoffset:0;stroke-opacity:1"
         id="rect4515-6-7-9-6-5"
         width="3.478323"
         height="0.90063721"
         x="-45.486263"
         y="16.38172"
         ry="0.24097122" />
      <rect
         style="opacity:1;fill:#585858;fill-opacity:1;fill-rule:evenodd;stroke:none;stroke-width:7.33984232;stroke-linecap:round;stroke-linejoin:bevel;stroke-miterlimit:4;stroke-dasharray:none;stroke-dashoffset:0;stroke-opacity:1"
         id="rect4515-6-7-5-3-1-6"
         width="3.478323"
         height="0.90063721"
         x="-45.486263"
         y="17.779263"
         ry="0.24097122" />
    </g>
  </g>
</svg>

<svg xmlns="http://www.w3.org/2000/svg" height="32" width="32" version="1"><rect width="28.203" height="28.203" x="1.898" y="1.898" ry="5.575" fill="#61b0dd" fill-rule="evenodd"/><path d="M20.693 30.102h3.834a5.561 5.561 0 0 0 5.575-5.575V7.473a5.561 5.561 0 0 0-5.575-5.575h-3.834v28.204z" fill="#e89800" fill-rule="evenodd"/><path d="M11.307 1.898H7.473a5.561 5.561 0 0 0-5.575 5.575v17.054a5.561 5.561 0 0 0 5.575 5.575h3.834V1.898z" fill="#bd1c1c" fill-rule="evenodd"/><g fill-rule="evenodd"><g transform="translate(50.314 -.827)"><rect width="5.622" height="14.055" x="-46.558" y="5.715" ry=".878" fill="#e5e5e5"/><circle cx="-43.747" cy="25.523" r="2.416" fill="#e5e5e5"/><circle cx="-43.747" cy="25.523" r="1.636" fill="#585858"/><rect width="3.478" height="2.298" x="-45.486" y="6.806" ry=".615" fill="#585858"/><rect width="3.478" height=".901" x="-45.486" y="14.938" ry=".241" fill="#585858"/><rect width="3.478" height=".901" x="-45.486" y="16.382" ry=".241" fill="#585858"/><rect width="3.478" height=".901" x="-45.486" y="17.779" ry=".241" fill="#585858"/></g><g transform="translate(59.747 -.827)"><rect width="5.622" height="14.055" x="-46.558" y="5.715" ry=".878" fill="#e5e5e5"/><circle cx="-43.747" cy="25.523" r="2.416" fill="#e5e5e5"/><circle cx="-43.747" cy="25.523" r="1.636" fill="#585858"/><rect width="3.478" height="2.298" x="-45.486" y="6.806" ry=".615" fill="#585858"/><rect width="3.478" height=".901" x="-45.486" y="14.938" ry=".241" fill="#585858"/><rect width="3.478" height=".901" x="-45.486" y="16.382" ry=".241" fill="#585858"/><rect width="3.478" height=".901" x="-45.486" y="17.779" ry=".241" fill="#585858"/></g><g transform="translate(69.18 -.827)"><rect width="5.622" height="14.055" x="-46.558" y="5.715" ry=".878" fill="#e5e5e5"/><circle cx="-43.747" cy="25.523" r="2.416" fill="#e5e5e5"/><circle cx="-43.747" cy="25.523" r="1.636" fill="#585858"/><rect width="3.478" height="2.298" x="-45.486" y="6.806" ry=".615" fill="#585858"/><rect width="3.478" height=".901" x="-45.486" y="14.938" ry=".241" fill="#585858"/><rect width="3.478" height=".901" x="-45.486" y="16.382" ry=".241" fill="#585858"/><rect width="3.478" height=".901" x="-45.486" y="17.779" ry=".241" fill="#585858"/></g></g></svg>
